X:27
T:Trumpet Hornpipe
N:or "Captain Pugwash"
L:1/8
Z:abc2nwc
K:C
"punto ma non troppo"
K:G
[M:2/4][L:1/16]|:D4| (3G2G2G2 G4| (3G2G2G2 G3d|B3G B3d|g3d B3G|
(3D2D2D2 D4| (3D2D2D2 D3A|F3D F3A|c3A F3A|
(3G2G2G2 G4| (3G2G2G2 G3d|B3G B3d|(g4g3)g|
f3a g3f|e3g f3e|d4d4|d4:|
|:B3c| (3d2d2d2 d4| (3d2d2d2 d4|e3f g3f|e3d c3B|
c3d e3d|c3B A3G|F3G A3F|D4D4|
(3G2G2G2 G4| (3=F2F2F2 F4| (3E2E2E2 E4| (3_E2E2E2 E4|
D3g f3e|d3c B3A|G4B4|G4:|


